!!!!SEGMENT: Mou2013-Alleluia_confitemini_Domino.krn
!!!id: Mou2013
!!!AGN: Motet
!!!SCT: Sherr (1989)
!!!voices: 4
!!!COM: Jean Mouton
!!!OTL: Alleluia confitemini Domino
**kern	**kern	**kern	**kern
*part4	*part3	*part2	*part1
*staff4	*staff3	*staff2	*staff1
*I"Bassus	*I"Tenor	*I"Altus	*I"Superius
*I'B	*I'T	*I'A	*I'S
*clefF4	*clefGv2	*clefG2	*clefG2
*k[b-]	*k[b-]	*k[b-]	*k[b-]
*F:	*F:	*F:	*F:
*M2/1	*M2/1	*M2/1	*M2/1
*met(C|)	*met(C|)	*met(C|)	*met(C|)
!!section: Prima pars: Alleluia confitemini Domino
!!!OMD: Prima pars: Alleluia confitemini Domino
=1	=1	=1	=1
0r	0r	1.c	0r
.	.	2c	.
=2	=2	=2	=2
0r	0r	2.d	1.f
.	.	4e	.
.	.	[1f	.
.	.	.	2f
=3	=3	=3	=3
0r	0r	1f]	2.a
.	.	.	4b-y
.	.	1c	[1cc
=4	=4	=4	=4
0r	0r	2.f	1cc]
.	.	4g	.
.	.	4a	1f
.	.	4b-y	.
.	.	[2a	.
=5	=5	=5	=5
0r	0r	2a]	1.cc
.	.	4g	.
.	.	4f	.
.	.	4e	.
.	.	4f	.
.	.	4g	4b-y
.	.	4a	4a
=6	=6	=6	=6
0r	0r	2g	2b-y
.	.	1f	2a
.	.	.	1g
.	.	2e	.
=7	=7	=7	=7
0r	1.F	[0f	[0a
.	2G	.	.
=8	=8	=8	=8
1r	2.A	0f]	0a]
.	4B-y	.	.
[1F	1c	.	.
=9	=9	=9	=9
2F]	2A	0r	0r
2G	2B-y	.	.
2.A	1c	.	.
4B-y	.	.	.
=10	=10	=10	=10
1c	2r	0r	0r
.	2c	.	.
2A	2c	.	.
2B-y	2d	.	.
=11	=11	=11	=11
1c	2.e	0r	0r
.	4d	.	.
2r	4e	.	.
.	4f	.	.
2C	[2g	.	.
=12	=12	=12	=12
2C	2g]	0r	0r
2D	2f	.	.
2.E	2e	.	.
.	4d	.	.
4F	4c	.	.
=13	=13	=13	=13
4G	2e	0r	1r
4E	.	.	.
2.F	2d	.	.
.	2c	.	[1f
4E	.	.	.
4D	[2d	.	.
4C	.	.	.
=14	=14	=14	=14
2BB-y	2d]	0r	2f]
2E-X	2c	.	2g
1D	1f	.	2a
.	.	.	2b-y
=15	=15	=15	=15
1C	1e	1c	1cc
1r	1r	2c	2a
.	.	2d	2b-y
=16	=16	=16	=16
1A	0r	2e	1cc
.	.	2f	.
2G	.	1g	2r
[2c	.	.	2g
=17	=17	=17	=17
2c]	1c	2e	2g
4B-y	.	2f	2a
4A	.	.	.
2.G	[1d	1g	2.b-y
4A	.	.	4cc
=18	=18	=18	=18
2B-y	2d]	2r	4dd
.	.	.	4b-y
2A	2e	2c	2cc
1F	1f	2c	1a
.	.	2d	.
=19	=19	=19	=19
2r	2.c	2.e	1g
1c	.	.	.
.	4d	4f	.
.	2e	4g	2r
.	.	4e	.
[2B-y	2d	[2f	[2dd
=20	=20	=20	=20
2B-]	1.g	2f]	2dd]
2c	.	2e	1cc
1G	.	1d	.
.	2f	.	2bni
=21	=21	=21	=21
0C	2.e	0c	0cc
.	4d	.	.
.	[1c	.	.
=22	=22	=22	=22
1.F	1c]	1r	0r
.	1r	[1c	.
2F	.	.	.
=23	=23	=23	=23
2.F	0r	2c]	0r
.	.	2c	.
4G	.	.	.
2A	.	2c	.
2B-y	.	2d	.
=24	=24	=24	=24
0A	1.c	2e	2r
.	.	2f	2a
.	.	[1e	2a
.	2c	.	2a
=25	=25	=25	=25
2r	2.c	1e]	1.cc
2A	.	.	.
.	4d	.	.
2A	2e	1r	.
2A	2f	.	2cc
=26	=26	=26	=26
1.c	1e	2r	1g
.	.	2e	.
.	1r	2e	1r
2c	.	2e	.
=27	=27	=27	=27
2.G	0r	1.g	0r
4A	.	.	.
2B-y	.	.	.
[2c	.	2g	.
=28	=28	=28	=28
4c]	0r	1.a	0r
4B-y	.	.	.
4A	.	.	.
4G	.	.	.
2F	.	.	.
[2A	.	4g	.
.	.	4f	.
=29	=29	=29	=29
4A]	0r	2.e	0r
4B-y	.	.	.
1c	.	.	.
.	.	4d	.
.	.	4e	.
.	.	4f	.
2B-y	.	[2g	.
=30	=30	=30	=30
2A	2r	4g]	0r
.	.	4f	.
4G	2d	2f	.
4F	.	.	.
1G	2d	1b-y	.
.	2d	.	.
=31	=31	=31	=31
0F	1.f	1a	2r
.	.	.	2a
.	.	1r	2a
.	2f	.	2a
=32	=32	=32	=32
0r	2.c	0r	1.cc
.	4d	.	.
.	2e	.	.
.	2f	.	2cc
=33	=33	=33	=33
0r	2e	0r	2.g
.	4d	.	.
.	4c	.	4a
.	2d	.	2b-y
.	[2c	.	2cc
=34	=34	=34	=34
0r	2c]	1r	2a
.	1f	.	4g
.	.	.	4f
.	.	1c	1g
.	2e	.	.
=35	=35	=35	=35
2r	2d	2d	1f
2D	4c	2.f	.
.	4B-y	.	.
2D	4A	.	2r
.	4G	4e	.
2D	2B-y	2d	4f
.	.	.	4g
=36	=36	=36	=36
1.F	2A	2c	4a
.	.	.	4b-y
.	4F	2B-y	2.cc
.	4G	.	.
.	4A	2.c	.
.	4B-y	.	4b-y
2F	[2c	.	2a
.	.	4d	.
=37	=37	=37	=37
2.C	2c]	4e	2.g
.	.	4f	.
.	4B-y	2.e	.
4D	4A	.	4f
2E	2G	.	2g
.	.	4d	.
2F	2F	[2c	[2a
=38	=38	=38	=38
1D	2A	2c]	4a]
.	.	.	4g
.	2B-y	2Bni	1f
1C	1G	[1c	.
.	.	.	2e
=39	=39	=39	=39
0F	1r	1c]	[0f
.	[1F	1r	.
=40	=40	=40	=40
0r	2F]	1.c	0f]
.	2F	.	.
.	2A	.	.
.	2B-y	2d	.
=41	=41	=41	=41
1.C	1c	2.e	0r
.	.	4f	.
.	[1G	[1g	.
2C	.	.	.
=42	=42	=42	=42
2E	2G]	2g]	0r
2F	2A	4f	.
.	.	4e	.
[1G	2.B-y	1d	.
.	4c	.	.
=43	=43	=43	=43
1G]	1d	1B-y	1.g
1C	[1e	1c	.
.	.	.	2a
=44	=44	=44	=44
1.G	2e]	1.B-y	2.b-y
.	2d	.	.
.	.	.	4cc
.	2B-y	.	1dd
2F	[2d	2A	.
=45	=45	=45	=45
2E	4d]	1G	1ee
.	4c	.	.
2C	1c	.	.
1D	.	1d	1ff
.	2Bni	.	.
=46	=46	=46	=46
[0C	[0c	1.g	1.ee
.	.	4f	4dd
.	.	4e	4cc
=47	=47	=47	=47
0C]	0c]	0e	1cc
.	.	.	2g
.	.	.	2g
=48	=48	=48	=48
0r	0r	2c	1.cc
.	.	2c	.
.	.	[1f	.
.	.	.	2cc
=49	=49	=49	=49
0r	0r	2f]	2a
.	.	2g	2b-y
.	.	2e	1cc
.	.	2f	.
=50	=50	=50	=50
0r	1r	1g	2b-y
.	.	.	4a
.	.	.	4g
.	2c	2e	1g
.	2c	4d	.
.	.	4c	.
=51	=51	=51	=51
2F	1.f	1c	0r
2F	.	.	.
[1B-y	.	1r	.
.	2f	.	.
=52	=52	=52	=52
2B-]	2d	0r	0r
2c	2e	.	.
2A	1f	.	.
2B-y	.	.	.
=53	=53	=53	=53
1c	2e	1r	2g
.	4d	.	2g
.	4c	.	.
2A	1c	2c	1cc
4G	.	2c	.
4F	.	.	.
=54	=54	=54	=54
1F	0r	1f	2cc
.	.	.	2cc
1r	.	2f	2a
.	.	2g	2b-y
=55	=55	=55	=55
0r	0r	2e	1cc
.	.	2f	.
.	.	1g	2b-y
.	.	.	4a
.	.	.	4g
=56	=56	=56	=56
1r	2c	2e	1g
.	2c	4d	.
.	.	4c	.
2F	1f	1c	1r
2F	.	.	.
=57	=57	=57	=57
1B-y	2f	0r	0r
.	2f	.	.
2B-y	2d	.	.
2c	2e	.	.
=58	=58	=58	=58
2A	1f	0r	0r
2B-y	.	.	.
1c	2e	.	.
.	4d	.	.
.	4c	.	.
=59	=59	=59	=59
2A	1c	0r	0r
4G	.	.	.
4F	.	.	.
1F	2r	.	.
.	[2c	.	.
=60	=60	=60	=60
2r	2c]	0r	0r
1C	2c	.	.
.	2.e	.	.
2C	.	.	.
.	4f	.	.
=61	=61	=61	=61
2.E	2.g	0r	0r
4F	4f	.	.
1G	4e	.	.
.	4d	.	.
.	[2e	.	.
=62	=62	=62	=62
2C	2e]	0r	0r
1G	4d	.	.
.	4c	.	.
.	4B-y	.	.
.	4c	.	.
4F	4d	.	.
4E	4e	.	.
=63	=63	=63	=63
2F	4d	2r	0r
.	4c	.	.
2E	1c	2c	.
1D	.	1d	.
.	2Bni	.	.
=64	=64	=64	=64
[0C	0c	2e	1r
.	.	2.g	.
.	.	.	2r
.	.	4f	.
.	.	4e	[2g
.	.	4d	.
=65	=65	=65	=65
1C]	2r	1e	2g]
.	1G	.	2g
2r	.	1d	2.b-y
[2G	2G	.	.
.	.	.	4cc
=66	=66	=66	=66
2G]	2.B-y	1g	1dd
2G	.	.	.
.	4c	.	.
2.B-y	1d	2f	2dd
.	.	4d	[2ff
4c	.	4e	.
=67	=67	=67	=67
1d	2d	4f	4ff]
.	.	4g	4ee
.	1f	2a	4dd
.	.	.	4cc
2B-y	.	2d	2dd
[2c	2e	[2g	[2ee
=68	=68	=68	=68
2c]	1c	4g]	4ee]
.	.	4e	4dd
4B-y	.	2f	1cc
4A	.	.	.
1G	1d	[1g	.
.	.	.	2bni
=	=	=	=
00C	00c	00g]	00cc
=||	=||	=||	=||
*M2/1	*M2/1	*M2/1	*M2/1
*met(C|)	*met(C|)	*met(C|)	*met(C|)
!!section: Secunda pars: Stetit Jesus in medio discipulorum
!!!OMD: Secunda pars: Stetit Jesus in medio discipulorum
0F	0c	0f	0a
=69	=69	=69	=69
1D	1d	1f	1a
[1C	[1e	[1g	[1cc
=70	=70	=70	=70
1C]	1e]	1g]	1cc]
1C	1e	1g	1cc
=71	=71	=71	=71
1BB-y	1f	1b-y	1dd
[1F	[1f	[1a	[1cc
=72	=72	=72	=72
2F]	2f]	2a]	2cc]
2F	2f	2a	2cc
1F	1f	[1a	[1cc
=73	=73	=73	=73
1A	1e	1a]	1cc]
[1B-y	[1d	1f	1b-y
=74	=74	=74	=74
2B-]	2d]	1.f	1.b-y
2B-y	2d	.	.
1B-y	1d	.	.
.	.	2f	2b-y
=75	=75	=75	=75
2.F	2.c	1f	1.a
4G	4B-y	.	.
2A	2c	2e	.
2B-y	[2d	[2g	2g
=76	=76	=76	=76
2A	4d]	4g]	1a
.	4c	4f	.
2F	1c	1f	.
1G	.	.	1b-y
.	2B-y	2e	.
=77	=77	=77	=77
0F	1c	1f	1a
.	1A	2r	1cc
.	.	2c	.
=78	=78	=78	=78
1r	1B-y	2.f	1dd
.	.	4g	.
1F	[1c	1a	1ff
=79	=79	=79	=79
1.c	2c]	1g	1ee
.	2d	.	.
.	2e	2c	2cc
2B-y	2d	[2g	[2dd
=80	=80	=80	=80
1A	2e	2g]	4dd]
.	.	.	4cc
.	2f	2f#i	1cc
1G	1d	[1g	.
.	.	.	2bni
=81	=81	=81	=81
[0C	[0c	1g]	[0cc
.	.	2r	.
.	.	2e	.
=82	=82	=82	=82
0C]	0c]	1g	0cc]
.	.	2c	.
.	.	2e	.
=83	=83	=83	=83
0r	0r	1d	2r
.	.	.	2a
.	.	1c	1cc
=84	=84	=84	=84
0r	0r	2d	2f
.	.	1f	2a
.	.	.	1g
.	.	2e	.
=85	=85	=85	=85
0r	0r	2f	2f
.	.	4e	2g
.	.	4d	.
.	.	2c	2a
.	.	2e	[2cc
=86	=86	=86	=86
1r	0r	1d	2cc]
.	.	.	2bni
2r	.	1c	[1cc
2G	.	.	.
=87	=87	=87	=87
1c	2r	0r	1cc]
.	2c	.	.
2F	2d	.	1r
2A	[2f	.	.
=88	=88	=88	=88
1G	2f]	0r	0r
.	2e	.	.
2F	2f	.	.
2G	4e	.	.
.	4d	.	.
=89	=89	=89	=89
2A	2c	1r	0r
1c	2e	.	.
.	1d	2r	.
2Bni	.	2G	.
=90	=90	=90	=90
2.c	1c	2.A	0r
4B-y	.	4B-y	.
4A	2r	4c	.
4G	.	4B-y	.
[2F	2A	[2c	.
=91	=91	=91	=91
2F]	1c	4c]	2r
.	.	4d	.
2E	.	2e	2g
2D	2F	2f	2a
[2C	2A	[2e	[2cc
=92	=92	=92	=92
2C]	1G	4e]	4cc]
.	.	4f	4b-y
2E	.	4g	4g
.	.	4e	4a
2D	2F	2f	2b-y
2C	2G	4e	[2cc
.	.	4d	.
=93	=93	=93	=93
1.F	2A	1c	4cc]
.	.	.	4b-y
.	1c	.	2.a
.	.	2A	.
.	.	.	4g
2D	2B-y	2B-y	[2f
=94	=94	=94	=94
1C	0c	1G	2f]
.	.	.	2e
[1F	.	1A	1f
=95	=95	=95	=95
1F]	0r	2r	2r
.	.	2f	2a
1r	.	2.f	2.cc
.	.	4f	4cc
=96	=96	=96	=96
0r	0r	2f	2cc
.	.	2e	2cc
.	.	2.g	2.b-y
.	.	4g	4b-y
=97	=97	=97	=97
2r	2r	0a	1a
2F	2A	.	.
2.F	2.c	.	1r
4F	4c	.	.
=98	=98	=98	=98
2F	2c	0r	0r
2E	2c	.	.
2G	2B-y	.	.
2G	2B-y	.	.
=99	=99	=99	=99
0A	1A	0r	0r
.	2r	.	.
.	[2F	.	.
=100	=100	=100	=100
2r	4F]	0r	0r
.	4G	.	.
2.F	4A	.	.
.	4B-y	.	.
.	2.c	.	.
4G	.	.	.
4A	.	.	.
4B-y	4B-y	.	.
=101	=101	=101	=101
2c	2A	0r	0r
2.C	2G	.	.
.	2.c	.	.
4D	.	.	.
4E	.	.	.
4F	4d	.	.
=102	=102	=102	=102
2.G	2e	0r	1r
.	2.d	.	.
4F	.	.	.
2E	.	.	2r
.	4c	.	.
2F	2c	.	[2f
=103	=103	=103	=103
1D	2d	0r	4f]
.	.	.	4g
.	1f	.	4a
.	.	.	4b-y
[1C	.	.	2.cc
.	4e	.	.
.	4d	.	4b-y
=104	=104	=104	=104
1C]	1e	2r	2a
.	.	2.c	2g
1r	2r	.	2.cc
.	.	4d	.
.	[2c	4e	.
.	.	4f	4dd
=105	=105	=105	=105
0r	2c]	2.g	2ee
.	2B-y	.	2.dd
.	.	4f	.
.	2c	2e	.
.	.	.	4cc
.	2A	2f	[2cc
=106	=106	=106	=106
0r	1G	1d	2cc]
.	.	.	2bni
.	2r	1c	[1cc
.	[2c	.	.
=107	=107	=107	=107
2r	2c]	0r	1cc]
1F	2c	.	.
.	2d	.	1r
2G	2e	.	.
=108	=108	=108	=108
2A	2c	0r	0r
2B-y	1d	.	.
2G	.	.	.
[2A	[2c	.	.
=109	=109	=109	=109
4A]	4c]	0r	0r
4G	4B-y	.	.
4F	4A	.	.
4E	4G	.	.
2.D	2A	.	.
.	2B-y	.	.
4E	.	.	.
=110	=110	=110	=110
4F	2A	2r	0r
4G	.	.	.
2.A	2.F	1c	.
4G	4G	.	.
[2F	2A	2c	.
=111	=111	=111	=111
2F]	1G	2d	1r
2E	.	2e	.
[1F	[1F	1c	2r
.	.	.	[2cc
=112	=112	=112	=112
1F]	1F]	2r	2cc]
.	.	1f	2cc
1r	1r	.	2dd
.	.	2g	2ee
=113	=113	=113	=113
0r	0r	2a	2cc
.	.	2b-y	1dd
.	.	2g	.
.	.	[2a	[2cc
=114	=114	=114	=114
0r	0r	4a]	4cc]
.	.	4g	4b-y
.	.	4f	4a
.	.	4e	4g
.	.	2.d	2a
.	.	.	2b-y
.	.	4e	.
=115	=115	=115	=115
0r	0r	4f	2a
.	.	4g	.
.	.	2.a	2.f
.	.	4g	4g
.	.	[2f	[2a
=116	=116	=116	=116
0r	2r	2f]	2a]
.	2c	4e	4g
.	.	4d	4f
.	2c	1e	1g
.	2c	.	.
=117	=117	=117	=117
0r	2d	1f	1f
.	2e	.	.
.	[1f	1r	2r
.	.	.	2cc
=118	=118	=118	=118
0r	1f]	1r	2cc
.	.	.	2cc
.	1r	2r	2.dd
.	.	2f	.
.	.	.	4ee
=119	=119	=119	=119
0r	2r	2f	2ff
.	2F	2f	2cc
.	2c	2.g	1ee
.	2c	.	.
.	.	4a	.
=120	=120	=120	=120
2r	2.d	2b-y	1dd
2F	.	2f	.
.	4e	.	.
2F	2f	1a	1cc
2F	2c	.	.
=121	=121	=121	=121
2.G	1e	1g	0r
4A	.	.	.
2B-y	1d	1f	.
2F	.	.	.
=122	=122	=122	=122
1A	1c	2r	1r
.	.	2c	.
1G	2r	2.d	2r
.	2G	.	2b-y
.	.	4e	.
=123	=123	=123	=123
1F	2.A	2f	1a
.	.	2c	.
.	4B-y	.	.
2r	2c	2.e	1g
2C	2G	.	.
.	.	4e	.
=124	=124	=124	=124
2.D	2.B-y	2d	1f
.	.	2d	.
4E	4B-y	.	.
2F	2A	1c	1r
2C	2A	.	.
=125	=125	=125	=125
2.E	1G	1r	2r
.	.	.	2g
4E	.	.	.
2D	1r	2r	2.a
2D	.	2d	.
.	.	.	4b-y
=126	=126	=126	=126
1C	2r	1e	2cc
.	2c	.	2g
2r	2.d	2f	2.b-y
2G	.	2g	.
.	4e	.	4b-y
=127	=127	=127	=127
2.A	2f	2r	2a
.	2c	2.e	2a
4B-y	.	.	.
2c	2.e	.	2g
.	.	4f	.
2G	.	[2g	[2b-y
.	4e	.	.
=128	=128	=128	=128
2.B-y	2d	4g]	4b-]
.	.	4f	4cc
.	2B-y	2d	2.dd
4B-y	.	.	.
2A	1c	2e	.
.	.	.	4cc
2A	.	2f	[2cc
=129	=129	=129	=129
1G	1d	1g	2cc]
.	.	.	2bni
1r	[1c	2.e	[1cc
.	.	4f	.
=130	=130	=130	=130
2r	1c]	2g	1cc]
1F	.	2.a	.
.	1r	.	1r
.	.	4g	.
2F	.	[2f	.
=131	=131	=131	=131
2A	0r	2f]	0r
2B-y	.	4e	.
.	.	4d	.
1c	.	2e	.
.	.	[2c	.
=132	=132	=132	=132
2F	0r	4c]	0r
.	.	4d	.
1c	.	4e	.
.	.	4f	.
.	.	2g	.
4B-y	.	2a	.
4A	.	.	.
=133	=133	=133	=133
2.B-y	0r	2g	2r
.	.	1f	2f
4A	.	.	.
1G	.	.	1g
.	.	2e	.
=134	=134	=134	=134
1F	2r	2f	2.a
.	1F	2F	.
.	.	.	4b-y
2r	.	2.A	1cc
[2c	2F	.	.
.	.	4B-y	.
=135	=135	=135	=135
2c]	2A	2c	1r
2B-y	2B-y	2d	.
2.A	[1c	1e	2r
.	.	.	[2a
4G	.	.	.
=136	=136	=136	=136
2F	1c]	2f	4a]
.	.	.	4b-y
2E	.	2g	2cc
2D	1F	2.a	2dd
[2A	.	.	[2cc
.	.	4g	.
=137	=137	=137	=137
4A]	1.c	2e	4cc]
4G	.	.	4b-y
4F	.	1f	4a
4E	.	.	4g
2F	.	.	2a
2G	4B-y	4e	[2g
.	4A	4d	.
=138	=138	=138	=138
2E	2B-y	4e	2g]
.	.	4d	.
2F	2A	4c	1f
.	.	4B-y	.
1C	1G	1c	.
.	.	.	2e
=139	=139	=139	=139
1r	1F	2r	1f
.	.	2A	.
[1c	2r	2.A	1r
.	2F	.	.
.	.	4B-y	.
=140	=140	=140	=140
2c]	2A	2c	1r
2B-y	2B-y	2d	.
2.A	[1c	1e	2r
.	.	.	[2a
4G	.	.	.
=141	=141	=141	=141
2F	1c]	2f	4a]
.	.	.	4b-y
2E	.	2g	2cc
2D	1F	2.a	2dd
[2A	.	.	[2cc
.	.	4g	.
=142	=142	=142	=142
4A]	1.c	2e	4cc]
4G	.	.	4b-y
4F	.	1f	4a
4E	.	.	4g
2F	.	.	2a
2G	4B-y	4e	[2g
.	4A	4d	.
=143	=143	=143	=143
2E-X	2B-y	4e	2g]
.	.	4d	.
2F	2A	4c	1f
.	.	4B-y	.
1C	1G	1c	.
.	.	.	2e
=144	=144	=144	=144
00Fl	00Fl	00cl	00fl
==	==	==	==
*-	*-	*-	*-
!!!system-decoration: [*]
!!!RDF**kern: i = editorial accidental
!!!RDF**kern: l = terminal long
!!!ENC: Benjamin Ory
!!!END: 2021/4/22
!!!EED: Benjamin Ory
!!!EEV: 2021/05/02
!!!YEC: Copyright 2021 Benjamin Ory, All Rights Reserved
!!!ONB: Translated from MusicXML on 2021/05/02
